X:1
T:Title
%%score { ( 1 2 4 ) | ( 3 5 ) }
L:1/8
Q:1/4=93
M:6/8
K:Bb
V:1 treble nm="Grand Piano"
V:2 treble 
V:4 treble 
V:3 bass 
V:5 bass 
V:1
 .[DF]6 | [DF]3 .[DB]3 | [CA]3- [CA][DB][Ec] | [DB]3 .[DF]3 | .[EG]6 | %5
w: W.~J.~Kirkpatrick|||||
 [=EB]-[G,E-B-][G,E-B-] [EB]AB | c6- | c6 | .[DF]6 | [DF]3 .[DB]3 | .[DB]6 | [Ge]3 .[EG]3 | %12
w: |||||||
 B,B,B, z Bd | .c6[K:bass][K:treble] | B6- | B3 z3 | BBB [Bd]2 [GB] | [^FA][FA][FA] [Ac]2 [FA] | %18
w: ||||||
 GGG [=EG][FA][GB] | [FA]3 [Ac]3 | BBB [Bd]2 [GB] | [^FA][FA][FA] [Ac]2 [FA] | GGG [=EB][EA][EG] | %23
w: |||||
 F6 | .[DF]6 | [DF]3 .[DB]3 | .[DB]6 | [Ge]3 .[EG]3 | B,B,B, z Bd | .c6[K:bass][K:treble] | B6- | %31
w: ||||||||
[M:7/4] B4 z2 z2 z2 z4 |] %32
w: |
V:2
 z B,B, B,[B,_D=E]G | B,B,B, z .F,2 | x6 | x6 | z B,B, z ^FG | .C3 .G,3 | z3 =E3 | x6 | %8
 B,B,B, z =EG | B,B,B, z .B,2 | B,B,B, z cd | z CC C .G,2 | .[DF]6 | %13
 z[K:bass] A,A, z[K:treble] BA | D-[F,D]D ED_D | D3 z3 | x6 | x6 | x6 | x6 | x6 | x6 | x6 | z3 E3 | %24
 B,B,B, z =EG | B,B,B, z .B,2 | B,B,B, z cd | z CC C .G,2 | .[DF]6 | %29
 z[K:bass] A,A, z[K:treble] BA | D-[F,D]D ED_D |[M:7/4] D4 z2 z2 z2 z4 |] %32
V:3
 [B,,B,]B,,B,, B,,B,,E | B,,B,,B,, [B,,F,] .B,,2 | F,F,F, F,F,F, | [B,,F,]3 .[B,,B,]3 | %4
 [E,B,]E,E, z EE | C,C,C, z =EE | .[F,A,]3 z3 | F,3 .F,,3 | B,,B,,B,, z _DE | %9
 B,,B,,B,, [B,,F,] .B,,2 | G,G,G, z[K:treble] EF | [C,C]C,C, E, .E,2 | F,F,F, z[K:treble] DF | %13
 E-[F,E-][F,E-] EDC | [B,,F,]B,,[B,,F,] [B,,G,][B,,F,][B,,=E,] | [B,,F,]3 z3 | %16
 [G,DG][G,DG][G,DG] [G,D]2 [G,D] | [D,D][D,D][D,D] [D,D]2 [D,D] | %18
 [E,B,E][E,B,E][E,B,E] [C,C][C,C][C,C] | [F,C]3 [F,E]3 | [G,DG][G,DG][G,DG] [G,D]2 [G,D] | %21
 [D,D][D,D][D,D] [D,D]2 [D,C] | [E,B,E][E,B,E][E,B,E] [C,C][C,C][C,C] | F,3- [F,C]3 | %24
 B,,B,,B,, z _DE | B,,B,,B,, [B,,F,] .B,,2 | G,G,G, z[K:treble] EF | [C,C]C,C, E, .E,2 | %28
 F,F,F, z[K:treble] DF | E-[F,E-][F,E-] EDC | [B,,F,]B,,[B,,F,] [B,,G,][B,,F,][B,,=E,] | %31
[M:7/4] [B,,F,]4 z2 z2 z2 z4 |] %32
V:4
 x6 | x6 | x6 | x6 | z3 .B,3 | x6 | z A,A, z A,B, | [A,E]6 | z3 .B,3 | x6 | z3 .B,3 | x6 | %12
 z3 .B,3 | z3[K:bass] .F,3[K:treble] | x6 | x6 | x6 | x6 | x6 | x6 | x6 | x6 | x6 | x6 | z3 .B,3 | %25
 x6 | z3 .B,3 | x6 | z3 .B,3 | z3[K:bass] .F,3[K:treble] | x6 |[M:7/4] x14 |] %32
V:5
 x6 | x6 | x6 | x6 | z3 .E,3 | z3 .C,3 | E-[F,E-][F,E] [C,G,]C,C, | x6 | z3 .B,,3 | x6 | %10
 z3 .G,3[K:treble] | x6 | z3 .F,3[K:treble] | .[F,A,]3 z3 | x6 | x6 | x6 | x6 | x6 | x6 | x6 | x6 | %22
 x6 | A,3 z3 | z3 .B,,3 | x6 | z3 .G,3[K:treble] | x6 | z3 .F,3[K:treble] | .[F,A,]3 z3 | x6 | %31
[M:7/4] x14 |] %32

